X:1
T:YAH RAH SARAH
T:YAH RAH SARAH
T:CCC HYMN 2
T:Arr. by Solomon Esemuze 
T:Copyright © Soloklef Music
C:CELESTIAL CHURCH OF CHRIST
Z:Copyright © Soloklef Music
%%score [ ( 1 2 ) ( 3 4 ) ]
L:1/8
Q:1/4=60
M:6/4
K:G
V:1 treble nm="Soprano/Alto"
V:2 treble 
V:3 bass nm="Tenor/Bass"
V:4 bass 
V:1
"D7"!mf! D6"G" B6 |"D" A6"Em" G6 |"Gother/B" D6"C" E6 |"D9" F4"D7" D2"G" G6 |"Em"!mp! G6"Bm" d6 | %5
w: Yah    rah|sa- rah|Yah rah|sa- mab- tah;|Yah rah|
w: |||||
"C" c6"G" B6 |"Gother/B" (G4 F2)"C" E6 |"D9" F4"D7" D2"G" G6 |"D7"!mf! D6"G" B6 | %9
w: sa- rah,|Yah * rah|sa- mab- tah.|E tan|
w: |||Kin- dle|
"D" A4-"B7" A2"Em" G6 |"Gother/B" D6"C" E4"Am7" E2 |"D9" F4"D7" D2"G" G6 |"Em"!mp! G6"Bm" d6 | %13
w: fi- ti- la|mi- mo la-|t'o- run wa,|E tan|
w: the * light|di- vine from|Heav'n a- bove,|Kin- dle|
"C" c4"Cm9/D" c2"G" B6 |"Gother/B" (G4 F2)"C" E4"Am7" E2 |"D9" F4"D7" D2"G" G6 |] %16
w: fi- ti- la|mi- * mo la-|t'o- run wa.|
w: the * light|di- * vine from|Heav'n a- bove.|
V:2
 C6 B,6 | (D4 ^D2) E6 | D6 C6 | D4 C2 B,6 | E6 F6 | (E4 _E2) D6 | D6 C6 | D4 C2 B,6 | C6 B,6 | %9
 (D4 ^D2) E6 | D6 C4 C2 | D4 C2 B,6 | E6 F6 | E4 _E2 D6 | D6 C4 C2 | D4 C2 B,6 |] %16
V:3
 F,6 G,6 | F,6 E,6 | G,6 G,6 | E,4 F,2 G,6 | B,6 (B,4 A,2) | G,6 G,6 | G,6 G,6 | E,4 F,2 D,6 | %8
 F,6 G,6 | F,4- F,2 E,6 | G,6 G,4- G,2 | E,4 F,2 G,6 | B,6 (B,4 A,2) | G,4 G,2 G,6 | G,6 G,4 G,2 | %15
 E,4 F,2 G,6 |] %16
V:4
 D,6 G,,6 | (D,4 B,,2) E,6 | B,,6 (C,4 A,,2) | D,4 D,2 G,,6 | E,6 B,,6 | (C,4 D,2) G,6 | %6
 B,,6 (C,4 A,,2) | D,4 D,2 G,,6 | D,6 G,,6 | (D,4 B,,2) E,6 | B,,6 (C,4 A,,2) | D,4 D,2 G,,6 | %12
 E,6 B,,6 | C,4 D,2 G,6 | B,,6 C,4 A,,2 | D,4 D,2 G,,6 |] %16

